Newaita-dark/apps/48/kollision.svg

<svg height="48pt" viewBox="0 0 48 48" width="48pt" xmlns="http://www.w3.org/2000/svg" xmlns:xlink="http://www.w3.org/1999/xlink"><linearGradient id="a" gradientTransform="matrix(.0031253 0 0 .093759 29.966927 20.158178)" gradientUnits="userSpaceOnUse" x1="254" x2="254" y1="233.5" y2="254.666672"><stop offset="0" stop-opacity=".27451"/><stop offset="1" stop-opacity="0"/></linearGradient><linearGradient id="b"><stop offset="0" stop-opacity=".313725"/><stop offset=".222222" stop-opacity=".27451"/><stop offset="1" stop-opacity="0"/></linearGradient><radialGradient id="c" cx="450.908936" cy="189.579361" gradientTransform="matrix(.00000026 -.117199 -.210958 -.00000015 70.753855 95.392999)" gradientUnits="userSpaceOnUse" r="21.166656" xlink:href="#b"/><radialGradient id="d" cx="450.908936" cy="189.579361" gradientTransform="matrix(-.00000026 .117199 .210958 .00000015 -9.23235 -11.291218)" gradientUnits="userSpaceOnUse" r="21.166656" xlink:href="#b"/><radialGradient id="e" cx="450.908936" cy="189.579361" gradientTransform="matrix(-.00000026 -.117199 .210958 -.00000015 -9.23235 95.392999)" gradientUnits="userSpaceOnUse" r="21.166656" xlink:href="#b"/><radialGradient id="f" cx="450.908936" cy="189.579361" gradientTransform="matrix(.00000026 .117199 -.210958 .00000015 70.753853 -11.291219)" gradientUnits="userSpaceOnUse" r="21.166656" xlink:href="#b"/><linearGradient id="g" gradientUnits="userSpaceOnUse" x1="16.86880725005" x2="16.86880725005" y1="26.17437724998" y2="4.34415649995"><stop offset="0" stop-color="#ef5350"/><stop offset="1" stop-color="#e57373"/></linearGradient><linearGradient id="h" gradientUnits="userSpaceOnUse" x1="30.7607662501" x2="30.7607662501" y1="42.0509015" y2="20.22068103125"><stop offset="0" stop-color="#42a5f5"/><stop offset="1" stop-color="#64b5f6"/></linearGradient><linearGradient id="i" gradientUnits="userSpaceOnUse" x1="264.583328" x2="264.583328" y1="80.041654" y2="-15.208335"><stop offset="0" stop-color="#ff7043"/><stop offset="1" stop-color="#ff8a65"/></linearGradient><linearGradient id="j" gradientUnits="userSpaceOnUse" x1="254" x2="254" y1="80.041664" y2="-9.916672"><stop offset="0" stop-color="#ffa726"/><stop offset="1" stop-color="#ffb74d"/></linearGradient><path d="m30.265625 41.902344h.992187v2.207031h-.992187zm0 0" fill="url(#a)"/><path d="m31.257812 42.050781h3.96875v-1.984375h-3.96875zm0 0" fill="url(#c)"/><path d="m30.265625 42.050781h-3.96875v1.984375h3.96875zm0 0" fill="url(#d)"/><path d="m30.265625 42.050781h-3.96875v-1.984375h3.96875zm0 0" fill="url(#e)"/><path d="m31.257812 42.050781h3.96875v1.984375h-3.96875zm0 0" fill="url(#f)"/><path d="m16.867188 4.34375c6.03125 0 10.917968 4.886719 10.917968 10.914062 0 6.03125-4.886718 10.917969-10.917968 10.917969-6.027344 0-10.914063-4.886719-10.914063-10.917969 0-6.027343 4.886719-10.914062 10.914063-10.914062zm0 0" fill="url(#g)"/><path d="m16.867188 4.34375c-6.046876 0-10.914063 4.867188-10.914063 10.914062 0 .167969.003906.332032.011719.496094.257812-5.8125 5.023437-10.417968 10.902344-10.417968 5.882812 0 10.648437 4.605468 10.90625 10.417968.007812-.164062.011718-.328125.011718-.496094 0-6.046874-4.871094-10.914062-10.917968-10.914062zm0 0" fill="#fff" fill-opacity=".392157"/><path d="m16.867188 26.175781c-6.046876 0-10.914063-4.871093-10.914063-10.917969 0-.164062.003906-.332031.011719-.496093.257812 5.816406 5.023437 10.421875 10.902344 10.421875 5.882812 0 10.648437-4.605469 10.90625-10.421875.007812.164062.011718.332031.011718.496093 0 6.046876-4.871094 10.917969-10.917968 10.917969zm0 0" fill-opacity=".235294"/><path d="m16.867188 4.203125c-6.121094 0-11.054688 4.933594-11.054688 11.054687 0 6.125 4.933594 11.058594 11.054688 11.058594 6.125 0 11.058593-4.933594 11.058593-11.058594 0-6.121093-4.933593-11.054687-11.058593-11.054687zm0 .28125c5.972656 0 10.777343 4.804687 10.777343 10.773437 0 5.972657-4.804687 10.777344-10.777343 10.777344-5.96875 0-10.773438-4.804687-10.773438-10.777344 0-5.96875 4.804688-10.773437 10.773438-10.773437zm0 0" fill="#212121"/><path d="m30.761719 20.21875c6.027343 0 10.914062 4.890625 10.914062 10.917969 0 6.027343-4.886719 10.914062-10.914062 10.914062-6.027344 0-10.917969-4.886719-10.917969-10.914062 0-6.027344 4.890625-10.917969 10.917969-10.917969zm0 0" fill="url(#h)"/><path d="m30.761719 20.21875c-6.046875 0-10.917969 4.871094-10.917969 10.917969 0 .164062.003906.332031.011719.496093.257812-5.816406 5.023437-10.417968 10.90625-10.417968 5.878906 0 10.644531 4.601562 10.902343 10.417968.007813-.164062.011719-.332031.011719-.496093 0-6.046875-4.867187-10.917969-10.914062-10.917969zm0 0" fill="#fff" fill-opacity=".392157"/><path d="m30.761719 42.050781c-6.046875 0-10.917969-4.867187-10.917969-10.914062 0-.167969.003906-.332031.011719-.496094.257812 5.8125 5.023437 10.417969 10.90625 10.417969 5.878906 0 10.644531-4.605469 10.902343-10.417969.007813.164063.011719.328125.011719.496094 0 6.046875-4.867187 10.914062-10.914062 10.914062zm0 0" fill-opacity=".235294"/><path d="m30.761719 20.078125c-6.125 0-11.058594 4.933594-11.058594 11.058594 0 6.121093 4.933594 11.054687 11.058594 11.054687 6.121093 0 11.054687-4.933594 11.054687-11.054687 0-6.125-4.933594-11.058594-11.054687-11.058594zm0 .28125c5.96875 0 10.773437 4.804687 10.773437 10.777344 0 5.96875-4.804687 10.773437-10.773437 10.773437-5.972657 0-10.777344-4.804687-10.777344-10.773437 0-5.972657 4.804687-10.777344 10.777344-10.777344zm0 0" fill="#212121"/><path d="m24.191406 24.59375c1.089844-1.089844 2.328125-1.613281 2.769532-1.175781.441406.441406-.085938 1.679687-1.175782 2.769531-1.085937 1.089844-2.328125 1.613281-2.765625 1.175781-.441406-.441406.085938-1.679687 1.171875-2.769531zm0 0" fill="#fff" fill-opacity=".235294"/><path d="m10.328125 8.691406c1.089844-1.089844 2.328125-1.613281 2.765625-1.175781.441406.441406-.085938 1.679687-1.171875 2.769531-1.089844 1.089844-2.328125 1.613282-2.769531 1.175782-.441406-.441407.085937-1.679688 1.175781-2.769532zm0 0" fill="#fff" fill-opacity=".235294"/><g stroke="#424242" stroke-linecap="round" stroke-linejoin="round" stroke-width="1.874057"><path d="m254.017409 90.63748c-4.707884.208313-6.374391-29.74716-10.582323-31.746969-4.49957-2.166459-30.622075 14.040326-33.871765 10.332347-3.124702-3.499666 19.248162-23.497756 18.206595-28.080652-1.124893-4.832872-30.080461-15.165218-29.205545-20.039753.791591-4.624558 30.3721.416627 33.288488-3.249689 3.124702-3.87463-6.874343-32.955187-2.541424-35.32996 4.124606-2.249785 18.623222 24.039371 23.331106 24.039371 4.957859 0 21.456284-25.955854 26.03918-24.039371 4.291256 1.833158-7.165983 29.538846-4.249595 33.205163 3.083039 3.87463 33.663452.62494 34.996658 5.374486 1.291544 4.499571-27.539036 12.832108-28.580604 17.373341-1.124892 4.832872 20.498043 26.705783 17.623317 30.747064-2.749737 3.791305-27.205735-13.582036-31.455329-11.540565-4.457908 2.16646-8.082562 32.705211-12.998759 32.955187zm0 0" fill="url(#i)" transform="matrix(.093759 0 0 .093759 0 20.158175)"/><path d="m254.017409 74.763996c-3.791304.374964-1.916483-24.830963-5.291161-26.455807-3.666317-1.791496-23.956046 13.915337-26.789109 10.998949-2.624749-2.708074 18.248258-16.956714 17.415004-20.62303-.916579-3.957956-25.830867-10.040708-25.330914-14.040326.499952-3.749642 24.622648 3.666316 26.997422.708266 2.499761-3.166365-8.249213-26.414145-4.79121-28.497279 3.208027-1.999809 12.457144 21.53961 16.248449 21.53961 4.041281 0 15.49852-22.956142 19.289824-21.53961 3.582992 1.291543-9.040803 23.164454-6.707692 26.122505 2.541424 3.166365 27.622362-2.166459 28.913905 1.666508 1.208218 3.582991-23.789395 7.374296-24.622649 11.040612-.916579 3.957956 18.914861 20.248067 16.706738 23.622744-2.041471 3.166365-20.581368-13.998663-23.997708-12.332155-3.666317 1.749833-4.041281 27.372386-8.040899 27.789013zm0 0" fill="url(#j)" transform="matrix(.093759 0 0 .093759 0 20.158175)"/></g></svg>

<?xml version="1.0" encoding="UTF-8"?>
<svg xmlns="http://www.w3.org/2000/svg" xmlns:xlink="http://www.w3.org/1999/xlink" width="48pt" height="48pt" viewBox="0 0 48 48" version="1.1">
<defs>
<linearGradient id="linear0" gradientUnits="userSpaceOnUse" x1="254" y1="233.5" x2="254" y2="254.666672" gradientTransform="matrix(0.0031253,0,0,0.093759,29.966927,20.158178)">
<stop offset="0" style="stop-color:rgb(0%,0%,0%);stop-opacity:0.27451;"/>
<stop offset="1" style="stop-color:rgb(0%,0%,0%);stop-opacity:0;"/>
</linearGradient>
<radialGradient id="radial0" gradientUnits="userSpaceOnUse" cx="450.908936" cy="189.579361" fx="450.908936" fy="189.579361" r="21.166656" gradientTransform="matrix(0.000000261256,-0.117199,-0.210958,-0.000000152308,70.753855,95.392999)">
<stop offset="0" style="stop-color:rgb(0%,0%,0%);stop-opacity:0.313725;"/>
<stop offset="0.222222" style="stop-color:rgb(0%,0%,0%);stop-opacity:0.27451;"/>
<stop offset="1" style="stop-color:rgb(0%,0%,0%);stop-opacity:0;"/>
</radialGradient>
<radialGradient id="radial1" gradientUnits="userSpaceOnUse" cx="450.908936" cy="189.579361" fx="450.908936" fy="189.579361" r="21.166656" gradientTransform="matrix(-0.000000261256,0.117199,0.210958,0.000000152308,-9.23235,-11.291218)">
<stop offset="0" style="stop-color:rgb(0%,0%,0%);stop-opacity:0.313725;"/>
<stop offset="0.222222" style="stop-color:rgb(0%,0%,0%);stop-opacity:0.27451;"/>
<stop offset="1" style="stop-color:rgb(0%,0%,0%);stop-opacity:0;"/>
</radialGradient>
<radialGradient id="radial2" gradientUnits="userSpaceOnUse" cx="450.908936" cy="189.579361" fx="450.908936" fy="189.579361" r="21.166656" gradientTransform="matrix(-0.000000261256,-0.117199,0.210958,-0.000000152308,-9.23235,95.392999)">
<stop offset="0" style="stop-color:rgb(0%,0%,0%);stop-opacity:0.313725;"/>
<stop offset="0.222222" style="stop-color:rgb(0%,0%,0%);stop-opacity:0.27451;"/>
<stop offset="1" style="stop-color:rgb(0%,0%,0%);stop-opacity:0;"/>
</radialGradient>
<radialGradient id="radial3" gradientUnits="userSpaceOnUse" cx="450.908936" cy="189.579361" fx="450.908936" fy="189.579361" r="21.166656" gradientTransform="matrix(0.000000261256,0.117199,-0.210958,0.000000152308,70.753853,-11.291219)">
<stop offset="0" style="stop-color:rgb(0%,0%,0%);stop-opacity:0.313725;"/>
<stop offset="0.222222" style="stop-color:rgb(0%,0%,0%);stop-opacity:0.27451;"/>
<stop offset="1" style="stop-color:rgb(0%,0%,0%);stop-opacity:0;"/>
</radialGradient>
<linearGradient id="linear1" gradientUnits="userSpaceOnUse" x1="179.916672" y1="64.166664" x2="179.916672" y2="-168.666672" gradientTransform="matrix(0.093759,0,0,0.093759,0,20.158175)">
<stop offset="0" style="stop-color:rgb(93.72549%,32.54902%,31.372549%);stop-opacity:1;"/>
<stop offset="1" style="stop-color:rgb(89.803922%,45.098039%,45.098039%);stop-opacity:1;"/>
</linearGradient>
<linearGradient id="linear2" gradientUnits="userSpaceOnUse" x1="328.083344" y1="233.5" x2="328.083344" y2="0.666667" gradientTransform="matrix(0.093759,0,0,0.093759,0,20.158175)">
<stop offset="0" style="stop-color:rgb(25.882353%,64.705882%,96.078431%);stop-opacity:1;"/>
<stop offset="1" style="stop-color:rgb(39.215686%,70.980392%,96.470588%);stop-opacity:1;"/>
</linearGradient>
<linearGradient id="linear3" gradientUnits="userSpaceOnUse" x1="444.5" y1="-9.916667" x2="444.5" y2="-105.166656" gradientTransform="matrix(1,0,0,1,-179.916672,89.958321)">
<stop offset="0" style="stop-color:rgb(100%,43.921569%,26.27451%);stop-opacity:1;"/>
<stop offset="1" style="stop-color:rgb(100%,54.117647%,39.607843%);stop-opacity:1;"/>
</linearGradient>
<linearGradient id="linear4" gradientUnits="userSpaceOnUse" x1="428.625" y1="-4.625" x2="428.625" y2="-94.583336" gradientTransform="matrix(1,0,0,1,-174.625,84.666664)">
<stop offset="0" style="stop-color:rgb(100%,65.490196%,14.901961%);stop-opacity:1;"/>
<stop offset="1" style="stop-color:rgb(100%,71.764706%,30.196078%);stop-opacity:1;"/>
</linearGradient>
</defs>
<g id="surface1">
<path style=" stroke:none;fill-rule:nonzero;fill:url(#linear0);" d="M 30.265625 41.902344 L 31.257812 41.902344 L 31.257812 44.109375 L 30.265625 44.109375 Z M 30.265625 41.902344 "/>
<path style=" stroke:none;fill-rule:nonzero;fill:url(#radial0);" d="M 31.257812 42.050781 L 35.226562 42.050781 L 35.226562 40.066406 L 31.257812 40.066406 Z M 31.257812 42.050781 "/>
<path style=" stroke:none;fill-rule:nonzero;fill:url(#radial1);" d="M 30.265625 42.050781 L 26.296875 42.050781 L 26.296875 44.035156 L 30.265625 44.035156 Z M 30.265625 42.050781 "/>
<path style=" stroke:none;fill-rule:nonzero;fill:url(#radial2);" d="M 30.265625 42.050781 L 26.296875 42.050781 L 26.296875 40.066406 L 30.265625 40.066406 Z M 30.265625 42.050781 "/>
<path style=" stroke:none;fill-rule:nonzero;fill:url(#radial3);" d="M 31.257812 42.050781 L 35.226562 42.050781 L 35.226562 44.035156 L 31.257812 44.035156 Z M 31.257812 42.050781 "/>
<path style=" stroke:none;fill-rule:nonzero;fill:url(#linear1);" d="M 16.867188 4.34375 C 22.898438 4.34375 27.785156 9.230469 27.785156 15.257812 C 27.785156 21.289062 22.898438 26.175781 16.867188 26.175781 C 10.839844 26.175781 5.953125 21.289062 5.953125 15.257812 C 5.953125 9.230469 10.839844 4.34375 16.867188 4.34375 Z M 16.867188 4.34375 "/>
<path style=" stroke:none;fill-rule:nonzero;fill:rgb(100%,100%,100%);fill-opacity:0.392157;" d="M 16.867188 4.34375 C 10.820312 4.34375 5.953125 9.210938 5.953125 15.257812 C 5.953125 15.425781 5.957031 15.589844 5.964844 15.753906 C 6.222656 9.941406 10.988281 5.335938 16.867188 5.335938 C 22.75 5.335938 27.515625 9.941406 27.773438 15.753906 C 27.78125 15.589844 27.785156 15.425781 27.785156 15.257812 C 27.785156 9.210938 22.914062 4.34375 16.867188 4.34375 Z M 16.867188 4.34375 "/>
<path style=" stroke:none;fill-rule:nonzero;fill:rgb(0%,0%,0%);fill-opacity:0.235294;" d="M 16.867188 26.175781 C 10.820312 26.175781 5.953125 21.304688 5.953125 15.257812 C 5.953125 15.09375 5.957031 14.925781 5.964844 14.761719 C 6.222656 20.578125 10.988281 25.183594 16.867188 25.183594 C 22.75 25.183594 27.515625 20.578125 27.773438 14.761719 C 27.78125 14.925781 27.785156 15.09375 27.785156 15.257812 C 27.785156 21.304688 22.914062 26.175781 16.867188 26.175781 Z M 16.867188 26.175781 "/>
<path style=" stroke:none;fill-rule:nonzero;fill:rgb(12.941177%,12.941177%,12.941177%);fill-opacity:1;" d="M 16.867188 4.203125 C 10.746094 4.203125 5.8125 9.136719 5.8125 15.257812 C 5.8125 21.382812 10.746094 26.316406 16.867188 26.316406 C 22.992188 26.316406 27.925781 21.382812 27.925781 15.257812 C 27.925781 9.136719 22.992188 4.203125 16.867188 4.203125 Z M 16.867188 4.484375 C 22.839844 4.484375 27.644531 9.289062 27.644531 15.257812 C 27.644531 21.230469 22.839844 26.035156 16.867188 26.035156 C 10.898438 26.035156 6.09375 21.230469 6.09375 15.257812 C 6.09375 9.289062 10.898438 4.484375 16.867188 4.484375 Z M 16.867188 4.484375 "/>
<path style=" stroke:none;fill-rule:nonzero;fill:url(#linear2);" d="M 30.761719 20.21875 C 36.789062 20.21875 41.675781 25.109375 41.675781 31.136719 C 41.675781 37.164062 36.789062 42.050781 30.761719 42.050781 C 24.734375 42.050781 19.84375 37.164062 19.84375 31.136719 C 19.84375 25.109375 24.734375 20.21875 30.761719 20.21875 Z M 30.761719 20.21875 "/>
<path style=" stroke:none;fill-rule:nonzero;fill:rgb(100%,100%,100%);fill-opacity:0.392157;" d="M 30.761719 20.21875 C 24.714844 20.21875 19.84375 25.089844 19.84375 31.136719 C 19.84375 31.300781 19.847656 31.46875 19.855469 31.632812 C 20.113281 25.816406 24.878906 21.214844 30.761719 21.214844 C 36.640625 21.214844 41.40625 25.816406 41.664062 31.632812 C 41.671875 31.46875 41.675781 31.300781 41.675781 31.136719 C 41.675781 25.089844 36.808594 20.21875 30.761719 20.21875 Z M 30.761719 20.21875 "/>
<path style=" stroke:none;fill-rule:nonzero;fill:rgb(0%,0%,0%);fill-opacity:0.235294;" d="M 30.761719 42.050781 C 24.714844 42.050781 19.84375 37.183594 19.84375 31.136719 C 19.84375 30.96875 19.847656 30.804688 19.855469 30.640625 C 20.113281 36.453125 24.878906 41.058594 30.761719 41.058594 C 36.640625 41.058594 41.40625 36.453125 41.664062 30.640625 C 41.671875 30.804688 41.675781 30.96875 41.675781 31.136719 C 41.675781 37.183594 36.808594 42.050781 30.761719 42.050781 Z M 30.761719 42.050781 "/>
<path style=" stroke:none;fill-rule:nonzero;fill:rgb(12.941177%,12.941177%,12.941177%);fill-opacity:1;" d="M 30.761719 20.078125 C 24.636719 20.078125 19.703125 25.011719 19.703125 31.136719 C 19.703125 37.257812 24.636719 42.191406 30.761719 42.191406 C 36.882812 42.191406 41.816406 37.257812 41.816406 31.136719 C 41.816406 25.011719 36.882812 20.078125 30.761719 20.078125 Z M 30.761719 20.359375 C 36.730469 20.359375 41.535156 25.164062 41.535156 31.136719 C 41.535156 37.105469 36.730469 41.910156 30.761719 41.910156 C 24.789062 41.910156 19.984375 37.105469 19.984375 31.136719 C 19.984375 25.164062 24.789062 20.359375 30.761719 20.359375 Z M 30.761719 20.359375 "/>
<path style=" stroke:none;fill-rule:nonzero;fill:rgb(100%,100%,100%);fill-opacity:0.235294;" d="M 24.191406 24.59375 C 25.28125 23.503906 26.519531 22.980469 26.960938 23.417969 C 27.402344 23.859375 26.875 25.097656 25.785156 26.1875 C 24.699219 27.277344 23.457031 27.800781 23.019531 27.363281 C 22.578125 26.921875 23.105469 25.683594 24.191406 24.59375 Z M 24.191406 24.59375 "/>
<path style=" stroke:none;fill-rule:nonzero;fill:rgb(100%,100%,100%);fill-opacity:0.235294;" d="M 10.328125 8.691406 C 11.417969 7.601562 12.65625 7.078125 13.09375 7.515625 C 13.535156 7.957031 13.007812 9.195312 11.921875 10.285156 C 10.832031 11.375 9.59375 11.898438 9.152344 11.460938 C 8.710938 11.019531 9.238281 9.78125 10.328125 8.691406 Z M 10.328125 8.691406 "/>
<path style="fill-rule:nonzero;fill:url(#linear3);stroke-width:1.874057;stroke-linecap:round;stroke-linejoin:round;stroke:rgb(25.882354%,25.882354%,25.882354%);stroke-opacity:1;stroke-miterlimit:4;" d="M 254.017409 90.63748 C 249.309525 90.845793 247.643018 60.89032 243.435086 58.890511 C 238.935516 56.724052 212.813011 72.930837 209.563321 69.222858 C 206.438619 65.723192 228.811483 45.725102 227.769916 41.142206 C 226.645023 36.309334 197.689455 25.976988 198.564371 21.102453 C 199.355962 16.477895 228.936471 21.51908 231.852859 17.852764 C 234.977561 13.978134 224.978516 -15.102423 229.311435 -17.477196 C 233.436041 -19.726981 247.934657 6.562175 252.642541 6.562175 C 257.6004 6.562175 274.098825 -19.393679 278.681721 -17.477196 C 282.972977 -15.644038 271.515738 12.06165 274.432126 15.727967 C 277.515165 19.602597 308.095578 16.352907 309.428784 21.102453 C 310.720328 25.602024 281.889748 33.934561 280.84818 38.475794 C 279.723288 43.308666 301.346223 65.181577 298.471497 69.222858 C 295.72176 73.014163 271.265762 55.640822 267.016168 57.682293 C 262.55826 59.848753 258.933606 90.387504 254.017409 90.63748 Z M 254.017409 90.63748 " transform="matrix(0.093759,0,0,0.093759,0,20.158175)"/>
<path style="fill-rule:nonzero;fill:url(#linear4);stroke-width:1.874057;stroke-linecap:round;stroke-linejoin:round;stroke:rgb(25.882354%,25.882354%,25.882354%);stroke-opacity:1;stroke-miterlimit:4;" d="M 254.017409 74.763996 C 250.226105 75.13896 252.100926 49.933033 248.726248 48.308189 C 245.059931 46.516693 224.770202 62.223526 221.937139 59.307138 C 219.31239 56.599064 240.185397 42.350424 239.352143 38.684108 C 238.435564 34.726152 213.521276 28.6434 214.021229 24.643782 C 214.521181 20.89414 238.643877 28.310098 241.018651 25.352048 C 243.518412 22.185683 232.769438 -1.062097 236.227441 -3.145231 C 239.435468 -5.14504 248.684585 18.394379 252.47589 18.394379 C 256.517171 18.394379 267.97441 -4.561763 271.765714 -3.145231 C 275.348706 -1.853688 262.724911 20.019223 265.058022 22.977274 C 267.599446 26.143639 292.680384 20.810815 293.971927 24.643782 C 295.180145 28.226773 270.182532 32.018078 269.349278 35.684394 C 268.432699 39.64235 288.264139 55.932461 286.056016 59.307138 C 284.014545 62.473503 265.474648 45.308475 262.058308 46.974983 C 258.391991 48.724816 258.017027 74.347369 254.017409 74.763996 Z M 254.017409 74.763996 " transform="matrix(0.093759,0,0,0.093759,0,20.158175)"/>
</g>
</svg>
